src/assets/images/icons/whats-app.svg

<svg width="15" height="15" viewBox="0 0 15 15" fill="none" xmlns="http://www.w3.org/2000/svg">
<path d="M11.594 1.98153C10.3186 0.703125 8.62013 0 6.81514 0C3.08949 0 0.0578328 3.03166 0.0578328 6.75731C0.0578328 7.94744 0.368304 9.11019 0.958807 10.136L0 13.6364L3.58259 12.6958C4.56879 13.2346 5.67979 13.5177 6.81209 13.5177H6.81514C10.5377 13.5177 13.6364 10.486 13.6364 6.76035C13.6364 4.95536 12.8693 3.25994 11.594 1.98153ZM6.81514 12.3793C5.80459 12.3793 4.81534 12.1084 3.95394 11.597L3.75 11.4752L1.62541 12.0323L2.19156 9.95942L2.05763 9.74635C1.49452 8.85146 1.19927 7.8196 1.19927 6.75731C1.19927 3.66173 3.71956 1.14144 6.81818 1.14144C8.31879 1.14144 9.72808 1.72585 10.7873 2.78815C11.8466 3.85045 12.498 5.25974 12.4949 6.76035C12.4949 9.85897 9.91071 12.3793 6.81514 12.3793ZM9.89549 8.17269C9.72808 8.08746 8.89712 7.67959 8.74188 7.6248C8.58665 7.56696 8.47403 7.53957 8.3614 7.71002C8.24878 7.88048 7.92614 8.25791 7.82569 8.37358C7.72829 8.4862 7.62784 8.50142 7.46043 8.41619C6.46814 7.92005 5.81676 7.53044 5.16234 6.40726C4.98884 6.10897 5.33584 6.13028 5.65848 5.48498C5.71327 5.37236 5.68588 5.27496 5.64326 5.18973C5.60065 5.10451 5.26278 4.27354 5.12277 3.93567C4.9858 3.60694 4.84578 3.6526 4.74229 3.64651C4.64489 3.64042 4.53226 3.64042 4.41964 3.64042C4.30702 3.64042 4.12439 3.68304 3.96916 3.85045C3.81392 4.0209 3.37865 4.42877 3.37865 5.25974C3.37865 6.09071 3.98438 6.89428 4.06656 7.0069C4.15179 7.11952 5.2567 8.82407 6.95211 9.55763C8.02354 10.0203 8.44359 10.0599 8.9793 9.98072C9.30499 9.93202 9.97768 9.57285 10.1177 9.17715C10.2577 8.78145 10.2577 8.44359 10.2151 8.37358C10.1755 8.29748 10.0629 8.25487 9.89549 8.17269Z" fill="#FFFCFF"/>
</svg>

<svg width="15" height="15" fill="none" xmlns="http://www.w3.org/2000/svg"><path d="M11.594 1.982A6.707 6.707 0 006.815 0 6.765 6.765 0 00.96 10.136l-.96 3.5 3.583-.94a6.736 6.736 0 003.23.822h.002c3.723 0 6.821-3.032 6.821-6.758 0-1.805-.767-3.5-2.042-4.778zM6.815 12.379c-1.01 0-2-.27-2.861-.782l-.204-.122-2.125.557.567-2.073-.134-.213a5.598 5.598 0 01-.859-2.989 5.624 5.624 0 015.62-5.616c1.5 0 2.91.585 3.968 1.647 1.06 1.062 1.711 2.472 1.708 3.972 0 3.099-2.584 5.62-5.68 5.62zm3.08-4.206c-.167-.086-.998-.493-1.153-.548-.155-.058-.268-.085-.38.085-.113.17-.436.548-.536.664-.098.112-.198.127-.366.042-.992-.496-1.643-.886-2.298-2.009-.173-.298.174-.277.496-.922.055-.113.028-.21-.015-.295-.042-.085-.38-.916-.52-1.254-.137-.33-.277-.283-.38-.29-.098-.006-.21-.006-.323-.006a.625.625 0 00-.45.21c-.156.17-.591.579-.591 1.41 0 .83.605 1.634.688 1.747.085.113 1.19 1.817 2.885 2.55 1.072.463 1.492.503 2.027.424.326-.049.999-.408 1.139-.804.14-.396.14-.733.097-.803-.04-.077-.152-.12-.32-.201z" fill="#FFFCFF"/></svg>
